/* XPM */
static char * bottom_left_inactive_xpm[] = {
"32 32 3 1",
"       c None",
"#      c #C0C0C0 s inactive_color_2",
"@      c #828282",
"@@######                        ",
"@@######                        ",
"@@######                        ",
"@@######                        ",
"@@######                        ",
"@@######                        ",
"@@######                        ",
"@@######                        ",
"@@######                        ",
"@@######                        ",
"@@######                        ",
"@@######                        ",
"@@######                        ",
"@@######                        ",
"@@######                        ",
"@@######                        ",
"@@######                        ",
"@@######                        ",
"@@######                        ",
"@@######                        ",
"@@######                        ",
"@@######                        ",
"@@######                        ",
"@@######                        ",
"@@##############################",
"@@##############################",
"@@##############################",
"@@@#############################",
" @@#############################",
" @@@@###########################",
"  @@@@@@@@@@@@@@@@@@@@@@@@@@@@@@",
"    @@@@@@@@@@@@@@@@@@@@@@@@@@@@"};
