/* XPM */
static char * bottom_inactive_xpm[] = {
"48 8 3 1",
"       c None",
"#      c #C0C0C0 s inactive_color_2",
"@      c #828282",
"################################################",
"################################################",
"################################################",
"################################################",
"################################################",
"################################################",
"@@@@@@@@@@@@@@@@@@@@@@@@@@@@@@@@@@@@@@@@@@@@@@@@",
"@@@@@@@@@@@@@@@@@@@@@@@@@@@@@@@@@@@@@@@@@@@@@@@@"};
