/* XPM */
static char * left_inactive_xpm[] = {
"8 48 3 1",
"       c None",
"#      c #C0C0C0 s inactive_color_2",
"@      c #828282",
"@@######",
"@@######",
"@@######",
"@@######",
"@@######",
"@@######",
"@@######",
"@@######",
"@@######",
"@@######",
"@@######",
"@@######",
"@@######",
"@@######",
"@@######",
"@@######",
"@@######",
"@@######",
"@@######",
"@@######",
"@@######",
"@@######",
"@@######",
"@@######",
"@@######",
"@@######",
"@@######",
"@@######",
"@@######",
"@@######",
"@@######",
"@@######",
"@@######",
"@@######",
"@@######",
"@@######",
"@@######",
"@@######",
"@@######",
"@@######",
"@@######",
"@@######",
"@@######",
"@@######",
"@@######",
"@@######",
"@@######",
"@@######"};
