/* XPM */
static char * top_right_inactive_xpm[] = {
"16 58 3 1",
"       c None",
".      c #C0C0C0 s inactive_color_2",
"@      c #828282",
"@@@@@@@@        ",
"@@@@@@@@@@      ",
".......@@@@@    ",
".........@@@@   ",
"...........@@@  ",
"............@@  ",
"............@@@ ",
".............@@ ",
".............@@@",
"..............@@",
"..............@@",
"..............@@",
"..............@@",
"..............@@",
"..............@@",
"..............@@",
"..............@@",
"..............@@",
"..............@@",
"..............@@",
"..............@@",
"..............@@",
"..............@@",
"..............@@",
"..............@@",
"..............@@",
"..............@@",
"..............@@",
"..............@@",
"..............@@",
"..............@@",
"..............@@",
"..............@@",
"..............@@",
"..............@@",
"..............@@",
"..............@@",
"..............@@",
"..............@@",
"..............@@",
"..............@@",
"..............@@",
"..............@@",
"..............@@",
"..............@@",
"..............@@",
"..............@@",
"..............@@",
"..............@@",
"..............@@",
"..............@@",
"..............@@",
"..............@@",
"..............@@",
"..............@@",
"..............@@",
"..............@@",
"..............@@"}
